!!!!SEGMENT: pl-wumfc--n48021--002_gall-jan-karol--4-piesni-ludowe-wloskie-dziewcze-z-sorentu-zrumieniona-rannym-brzaskiem.krn
!!!cenid: 18xx:4178
!!!COM: Gall, Jan Karol
!!!COM-rismID: pe50042628
!!!CDT: 1856-1912
!!!CNT: Polish
!!!GTL: 4 pieśni ludowe włoskie
!!!OTL: Dziewczę z Sorentu./Zrumieniona rannym brzaskiem
!!!PDT:
!!!AGN:
!!!SMS-siglum: PL-Wumfc
!!!SMS-shelfmark: N48021
!!!SMS-shelfwork: 002 G
!!!SMS-variant:
!!!SMS-altvar:
!!!NIFC-rismSourceID: 1001177916
!!!NIFC-rismChildID: 1001177916
!!!NIFC-islandoraID: pl-wumfc:8031
!!!URL-pdf-islandora: https://repozytorium.nifc.pl/islandora/object/pl-wumfc%3A8031/datastream/PDF/view
!!!URL-scan: https://polish.musicsources.pl/pl/lokalizacje/galeria/druki-muzyczne/12516-4-songs/1 @EN{Scan on Polish Music Sources Website} @PL{Skany w portalu Dziedzictwo Muzyki Polskiej w otwartym dostępie}
!!!ONB-nifc: UWAGA: w zbiorze 1. Serenata siciliana, 2. Dziewczę z Sorentu
!!!AIN: 2 piano 1 vox
!!!key: D-
**kern	**kern	**dynam	**kern	**text	**text
*part3	*part2	*part2	*part1	*part1	*part1
*staff3	*staff2	*	*staff1	*staff1	*staff1
*I"Fortepian.	*I"Fortepian.	*	*I"Głos.	*	*
*I'Pf	*I'Pf	*	*I'V.	*	*
*Ipiano	*Ipiano	*	*Ivox	*	*
*ICklav	*ICklav	*	*ICvox	*	*
*clefF4	*clefG2	*	*clefG2	*	*
*k[b-e-a-d-g-]	*k[b-e-a-d-g-]	*	*k[b-e-a-d-g-]	*	*
*D-:	*D-:	*	*D-:	*	*
*M6/8	*M6/8	*	*M6/8	*	*
=1	=1	=1	=1	=1	=1
!	!	!	!LO:TX:a:B:t=Allegretto.	!	!
8D-/L	8r	.	2.r	.	.
8r	4A-/ 4d- 4f	f >	.	.	.
(8AA-/J	.	.	.	.	.
8D-/L)	8r	.	.	.	.
8r	4A-/ 4d- 4f	.	.	.	.
(8AA-/J	.	.	.	.	.
=2	=2	=2	=2	=2	=2
8D-/L)	8r	.	4r	.	.
8r	4A-/ 4d- 4f	.	.	.	.
(8AA-/J	.	.	8r	.	.
8D-/L)	8r	.	8r	.	.
8r	4A-/ 4d- 4f	] pp	8f/	Zru-	Schlank
(8AA-/J	.	.	8g-/	-mie-	wie
=3	=3	=3	=3	=3	=3
*	*^	*	*	*	*
8D-/L)	8raa	4rcyy	.	8b-\	-nio-	Re-
8r	4A-/ 4d- 4f	.	.	[4a-/	-na	-ben
(8AA-/J	.	8rcyy	.	.	.	.
8D-/L)	8raa	8rcyy	.	8a-/]	.	.
!	!	!	!	!LO:TX:a:t=Jan Gall.	!	!
8r	4f/	8d-\L	.	8dd-\	ran-	auf-
(8DD-/J	.	8c\J	.	8cc\	-nym	-wärts
!LO:LB:g=original	!	!LO:LB:g=original	!	!LO:LB:g=original	!	!
=4	=4	=4	=4	=4	=4	=4
8GG-/L)	8raa	4rc	.	8cc\	brzas-	stre-
8r	4B-/ 4d- 4g-	.	.	[4b-\	-kiem,	-ben
(8BB-/J	.	8rcyy	.	.	.	.
8E-/L)	8raa	8rcyy	.	8b-\]	.	.
8r	4B-/ 4g-	8e-\L	.	8ee-\	po-	schwebt
(8EE-/J	.	8d-\J	.	8dd-\	-zba-	ihr
*	*v	*v	*	*	*	*
=5	=5	=5	=5	=5	=5
8AA-/L)	8r	.	8dd-\	-wi-	ho-
8r	4A-/ 4c 4g-	.	[4cc\	-ła	-her
(8EE-/J	.	.	.	.	.
8AAA-/L)	8r	.	8cc\]	.	.
8r	8A-/L 8c 8f	.	8ff\	zor-	Wuchs
(8AA-/J	8G-/J 8c 8e-	.	8ee-\	-żę	hin
=6	=6	=6	=6	=6	=6
8DD-/L)	8r	.	(8ee-\	kras	an,
8r	4F/ 4A- 4d-	.	4dd-\)	.	.
(8AA-/J	.	.	.	.	.
8D-/L)	8r	.	8r	.	.
8r	4A-/ 4d- 4f	.	8f/	Przed	gleich
(8AA-/J	.	.	8g-/	jej	wie
=7	=7	=7	=7	=7	=7
*	*^	*	*	*	*
8DD-/L)	8raa	4rcyy	.	8b-\	o-	fer-
8r	4A-/ 4d- 4f	.	.	[4a-/	-czu	-ne
(8AA-/J	.	8rcyy	.	.	.	.
8D-/L)	8raa	8rcyy	.	8a-/]	.	.
8r	4f/	8d-\L	.	8dd-\	jas-	Mor-
(8DD-/J	.	8c\J	.	8cc\	-nym	-gen-
!LO:LB:g=original	!	!LO:LB:g=original	!	!LO:LB:g=original	!	!
=8	=8	=8	=8	=8	=8	=8
8GG-/L)	8raa	4rc	.	8cc\	blas-	-ster-
8r	4B-/ 4d- 4g-	.	.	[4b-\	-kiem	-ne
(8BB-/J	.	8rcyy	.	.	.	.
8E-/L)	8raa	8rcyy	.	8b-\]	.	.
8r	4B-/ 4g-	8e-\L	.	8ee-\	gwiazd	glänzt
(8EE-/J	.	8d-\J	.	8dd-\	za-	ihr
*	*v	*v	*	*	*	*
=9	=9	=9	=9	=9	=9
8AA-/L)	8r	.	8dd-\	-zdro-	Au-
8r	4A-/ 4c 4g-	.	[4cc\	-sny	-ge
(8EE-/J	.	.	.	.	.
8AAA-/L)	8r	.	8cc\]	.	.
8r	8A-/L 8c 8f	.	8ff\	pro-	hold
(8AA-/J	8G-/J 8c 8e-	.	8ee-\	-mień	mich
=10	=10	=10	=10	=10	=10
8DD-/L)	8r	.	(8ee-\	zgasł	an
8r	[4F/ [4A- [4d-	.	4dd-\)	.	.
(8AA-/J	.	.	.	.	.
8D-\)	8F/] 8A-] 8d-]	.	8r	.	.
8r	8r	.	8dd-\	a	Ih-
8r	8r	.	8ee-\	jej	-ren
=11	=11	=11	=11	=11	=11
8BBB-/L	8r	.	8gg-\	gło-	schö-
8r	16F/LL 16B- 16d-	.	[4ff\	-su	-nen
.	16F/ 16B- 16d-	.	.	.	.
(8FF/J	16F/ 16B- 16d-	.	.	.	.
.	16F/JJ 16B- 16d-	.	.	.	.
8BB-/L)	8F/L 8B- 8d-	.	8ff\]	.	.
8BBB-/	8r	.	8ee-\	sreb-	zar-
(8FF/J	8F/J 8B- 8d-	.	8dd-\	-rne	-ten
!LO:LB:g=original	!LO:LB:g=original	!	!	!LO:LB:g=original	!
=12	=12	=12	=12	=12	=12
8CC/L)	8r	.	8ff\	to-	Tö-
8r	16F/LL 16An 16e-	.	[4ee-\	-ny	-nen
.	16F/ 16A 16e-	.	.	.	.
(8FF/J	16F/ 16A 16e-	.	.	.	.
.	16F/JJ 16A 16e-	.	.	.	.
8F/L)	8A/L 8e-	.	8ee-\]	.	.
8FF/	8r	.	8dd-\	do	horcht
(8F/J	8A/J 8e-	.	8cc\	swych	und
=13	=13	=13	=13	=13	=13
*	*^	*	*	*	*
8BB-/L)	8raa	4rc	.	(8ee-\L	pie-	schweigt
8r	16F/LL 16B- 16d-	.	.	8dd-\J)	.	.
.	16F/ 16B- 16d-	.	.	.	.	.
8BBB-/J	16F/ 16B- 16d-	8rc	.	8dd-\	-śni	die
.	16F/JJ 16B- 16d-	.	.	.	.	.
(4.GG-X/	8d-/L	4.En\ 4.B-	.	8dd-\L	sło-	Nach-
.	8c/	.	.	8cc\J	.	.
.	8B-/J	.	.	8b-\	-wik	-ti-
*	*v	*v	*	*	*	*
=14	=14	=14	=14	=14	=14
8FF/L)	16F/LL 16An	.	16an/LL	kradł	-gall,
.	16Gn/JJ 16B-	.	16b-/JJ	.	.
8r	[4A/ [4c	.	[4cc\	.	.
(8C/J	.	.	.	.	.
8F\)	8A/] 8c]	.	8cc\]	.	.
8r	8r	.	8dd-\	Świt	Hain
(8FF/	8r	.	8ee-\	ju-	und
!LO:LB:g=original	!LO:LB:g=original	!	!LO:LB:g=original	!	!
=15	=15	=15	=15	=15	=15
8BBB-/L)	8r	.	8gg-\	-trzen-	Bäu-
8r	16F/LL 16B- 16d-	.	[4ff\	-ką	-me
.	16F/ 16B- 16d-	.	.	.	.
(8FF/J	16F/ 16B- 16d-	.	.	.	.
.	16F/JJ 16B- 16d-	.	.	.	.
8BB-/L)	8F/L 8B- 8d-	.	8ff\]	.	.
8BBB-/	8r	.	8ee-\	o	steh'n
(8FF/J	8F/J 8B- 8d-	.	8dd-\	zło-	wie
=16	=16	=16	=16	=16	=16
8CC/L)	8r	.	8ff\	-co-	Träu-
8r	16F/LL 16An 16e-	.	[4ee-\	-ny	-me
.	16F/ 16A 16e-	.	.	.	.
(8FF/J	16F/ 16A 16e-	.	.	.	.
.	16F/JJ 16A 16e-	.	.	.	.
8F/L)	8A/L 8e-	.	8ee-\]	.	.
8FF/	8r	.	8dd-\	na	am
(8F/J	8A/J 8e-	.	8cc\	jej	ver-
=17	=17	=17	=17	=17	=17
*	*^	*	*	*	*
8BB-/L)	8raa	4rcyy	.	8ee-\L	wło-	-stumm-
8r	16F/LL 16B- 16d-	.	.	8dd-\J	.	.
.	16F/ 16B- 16d-	.	.	.	.	.
8BBB-/J	16F/ 16B- 16d-	8rcyy	.	8dd-\	-sy	-ten
.	16F/JJ 16B- 16d-	.	.	.	.	.
(4.GG-X/	8d-/L	4.En\ 4.B-	.	8dd-\L	błys-	Was-
.	8c/	.	.	8cc\J	.	.
.	8B-/J	.	.	8b-\	-ki	-ser-
*	*v	*v	*	*	*	*
=18	=18	=18	=18	=18	=18
8FF/L)	[4.F/	.	[4.f/	kładł	-fall.
8r	.	.	.	.	.
((8CC/J	.	.	.	.	.
8FFF/)) 8FF	8F/] 8f	.	8f/]	.	.
8r	8r	.	8f/	a	Blu-
8r	8r	.	8g-/	wie-	-men
!LO:LB:g=original	!LO:LB:g=original	!	!LO:LB:g=original	!	!
=19	=19	=19	=19	=19	=19
*	*^	*	*	*	*
8D-/L	8raa	4rcyy	.	8b-\	-trzy-	spros-
8r	4A-/ 4d- 4f	.	.	[4a-/	-ka	-sen
(8AA-/J	.	8rcyy	.	.	.	.
8D-/L)	8raa	8rcyy	.	8a-/]	.	.
8r	4f/	8d-\L	.	8dd-\	nie-	hin-
(8DD-/J	.	8c\J	.	8cc\	-sie	-ge-
=20	=20	=20	=20	=20	=20	=20
8GG-/L)	8raa	4rc	.	8cc\	tchnie-	-gos-
8r	4B-/ 4d- 4g-	.	.	[4b-\	-nie	-sen
(8BB-/J	.	8rcyy	.	.	.	.
8E-/L)	8raa	8rcyy	.	8b-\]	.	.
8r	4B-/ 4g-	8e-\L	.	8ee-\	wo-	wo
(8EE-/J	.	8d-\J	.	8dd-\	-nie,	ihr
=21	=21	=21	=21	=21	=21	=21
8AA-/L)	8raa	4rc	.	8dd-\	pie-	zar-
8r	4A-/ 4c 4g-	.	.	[4cc\	-śni	-ter
(8EE-/J	.	8rcyy	.	.	.	.
8AAA-/L)	8raa	8rcyy	.	8cc\]	.	.
8r	8c/L 8f	8A-\L	.	8ff\	za	Tritt
(8AA-/J	8c/J 8e-	8G-\J	.	8ee-\	nią	ge-
*	*v	*v	*	*	*	*
=22	=22	=22	=22	=22	=22
8DD-/L)	8r	.	(8ee-\	wślad	-schwebt,
8r	4F/ 4A- 4d-	.	4dd-\)	.	.
(8AA-/J	.	.	.	.	.
8D-/L)	8r	.	8r	.	.
8r	4A-/ 4d- 4f	.	8f/	a	A-
(8AA-/J	.	.	8g-/	gdzie	-mo-
!LO:LB:g=original	!LO:LB:g=original	!	!LO:LB:g=original	!	!
=23	=23	=23	=23	=23	=23
*	*^	*	*	*	*
8DD-/L)	8raa	4rcyy	.	8b-\	pad-	-ret-
8r	4A-/ 4d- 4f	.	.	[4a-/	-nie	-ten
(8AA-/J	.	8rcyy	.	.	.	.
8D-/L)	8raa	8rcyy	.	8a-/]	.	.
8r	4f/	8d-\L	.	8dd-\	jej	win-
(8DD-/J	.	8c\J	.	8cc\	spoj-	-den
=24	=24	=24	=24	=24	=24	=24
8GG-/L)	8raa	4rc	.	8cc\	-rze-	Ket-
8r	4B-/ 4d- 4g-	.	.	[4b-\	-nie	-ten,
(8BB-/J	.	8rcyy	.	.	.	.
8E-/L)	8raa	8rcyy	.	8b-\]	.	.
8r	4B-/ 4g-	8e-\L	.	8ee-\	tam	wo
(8EE-/J	.	8d-\J	.	8dd-\	stu-	sie
*	*v	*v	*	*	*	*
=25	=25	=25	=25	=25	=25
8AA-/L)	8r	.	8dd-\	-bar-	spricht
8r	4A-/ 4c 4g-	.	[4cc\	-wny	und
(8EE-/J	.	.	.	.	.
4AAA-;/)	8r	.	8cc\]	.	.
.	8A-;/L 8c 8f	.	8ff;\	try-	liebt
(8AA-/	((8G-/J 8c 8e-	.	8ee-\	-ska	und
=26	=26	=26	=26	=26	=26
8DD-/)	8F/)) 8A- 8d-	.	4dd-\	kwiat.	lebt.
16A-\LL	16a-/LL	.	.	.	.
16Gn\	16gn/	.	.	.	.
16B-\	16b-/	.	8r	.	.
(16A-\JJ	((16a-/JJ	.	.	.	.
8D-\)	8f/)) 8a- 8dd-	.	4r	.	.
8r	8r	.	.	.	.
8r	8r	.	8r	.	.
==	==	==	==	==	==
*-	*-	*-	*-	*-	*-
!!!RDF**kern: > = above
!!!RDF**kern: < = below
!!!system-decoration: s1[(s2,s3)]
!!!ENC: Solarz Mateusz
!!!END: 2022-09-08
!!!ENC: Julita Ruszuk
!!!END: 2022-09-22
!!!YEC: Copyright 2022 Narodowy Instytut Fryderyka Chopina (https://polishscores.org)
!!!YEM: License CC-BY-4.0 (https://creativecommons.org/licenses/by/4.0)
